components/Common/Svg/svgs/certificate.svg

<svg width="40" height="40" viewBox="0 0 40 40" fill="none" xmlns="http://www.w3.org/2000/svg">
<path fill-rule="evenodd" clip-rule="evenodd" d="M8.33333 9.33333C7.05228 9.33333 6 10.3856 6 11.6667V28.3333C6 28.9522 6.24583 29.5457 6.68342 29.9832C7.121 30.4208 7.7145 30.6667 8.33333 30.6667H16.6667C17.219 30.6667 17.6667 31.1144 17.6667 31.6667C17.6667 32.219 17.219 32.6667 16.6667 32.6667H8.33333C7.18406 32.6667 6.08186 32.2101 5.2692 31.3975C4.45655 30.5848 4 29.4826 4 28.3333V11.6667C4 9.28105 5.94772 7.33333 8.33333 7.33333H31.6667C32.8159 7.33333 33.9181 7.78988 34.7308 8.60254C35.5435 9.41519 36 10.5174 36 11.6667V28.3333L36 28.3344C35.9992 29.0943 35.7986 29.8406 35.4183 30.4985C35.038 31.1564 34.4914 31.7027 33.8333 32.0827C33.355 32.3588 32.7434 32.195 32.4673 31.7167C32.1912 31.2384 32.355 30.6268 32.8333 30.3506C33.1877 30.146 33.482 29.8519 33.6868 29.4976C33.8916 29.1434 33.9996 28.7415 34 28.3323V11.6667C34 11.0478 33.7542 10.4543 33.3166 10.0167C32.879 9.57916 32.2855 9.33333 31.6667 9.33333H8.33333ZM21 25C21 22.7909 22.7909 21 25 21C27.2091 21 29 22.7909 29 25C29 27.2091 27.2091 29 25 29C22.7909 29 21 27.2091 21 25ZM25 19C21.6863 19 19 21.6863 19 25C19 26.6102 19.6343 28.0723 20.6666 29.15L20.6665 29.1667V36.6667C20.6665 37.0454 20.8805 37.3917 21.2193 37.5611C21.5581 37.7305 21.9635 37.6939 22.2665 37.4667L24.9998 35.4167L27.7332 37.4667C28.0362 37.6939 28.4416 37.7305 28.7804 37.5611C29.1192 37.3917 29.3332 37.0454 29.3332 36.6667V29.1667L29.333 29.1503C30.3656 28.0726 31 26.6104 31 25C31 21.6863 28.3137 19 25 19ZM27.3332 30.5295C26.616 30.8325 25.8275 31 25 31C24.1723 31 23.3838 30.8324 22.6665 30.5293V34.6667L24.3998 33.3667C24.7554 33.1 25.2443 33.1 25.5998 33.3667L27.3332 34.6667V30.5295ZM10 14C9.44772 14 9 14.4477 9 15C9 15.5523 9.44772 16 10 16H30C30.5523 16 31 15.5523 31 15C31 14.4477 30.5523 14 30 14H10ZM9 20C9 19.4477 9.44772 19 10 19H15C15.5523 19 16 19.4477 16 20C16 20.5523 15.5523 21 15 21H10C9.44772 21 9 20.5523 9 20ZM10 24C9.44772 24 9 24.4477 9 25C9 25.5523 9.44772 26 10 26H13.3333C13.8856 26 14.3333 25.5523 14.3333 25C14.3333 24.4477 13.8856 24 13.3333 24H10Z" fill="#161616"/>
</svg>

<svg width="40" height="40" viewBox="0 0 40 40" fill="none" xmlns="http://www.w3.org/2000/svg"><path fill-rule="evenodd" clip-rule="evenodd" d="M8.333 9.333A2.343 2.343 0 0 0 6 11.667v16.666a2.333 2.333 0 0 0 2.333 2.334h8.334a1 1 0 1 1 0 2H8.333A4.334 4.334 0 0 1 4 28.333V11.667a4.343 4.343 0 0 1 4.333-4.334h23.334A4.333 4.333 0 0 1 36 11.667v16.667a4.333 4.333 0 0 1-2.167 3.749 1 1 0 1 1-1-1.732A2.333 2.333 0 0 0 34 28.332V11.667a2.333 2.333 0 0 0-2.333-2.334H8.333ZM21 25a4 4 0 1 1 8 0 4 4 0 0 1-8 0Zm4-6a6 6 0 0 0-4.333 10.15v7.517a1 1 0 0 0 1.6.8L25 35.417l2.733 2.05a1 1 0 0 0 1.6-.8V29.15A6 6 0 0 0 25 19Zm2.333 11.53A5.981 5.981 0 0 1 25 31a5.98 5.98 0 0 1-2.334-.47v4.137l1.734-1.3a1 1 0 0 1 1.2 0l1.733 1.3v-4.138ZM10 14a1 1 0 1 0 0 2h20a1 1 0 1 0 0-2H10Zm-1 6a1 1 0 0 1 1-1h5a1 1 0 1 1 0 2h-5a1 1 0 0 1-1-1Zm1 4a1 1 0 1 0 0 2h3.333a1 1 0 1 0 0-2H10Z" fill="#161616"/></svg>
